X:177
T:Tin Fiddle* (h)
B:NFID.174a ("untitled highland")
177tin_f
S:?
L:1/8
M:C
R:hornpipe
Q:300
K:G
DGGF DGGE|=F2cF dFcF|DGGG DGGg|fdcA BdAF|
DGGF DGG=F|E=FcF dFcF|DGGF DGGg|fdcA BGBd||
g2bg dgbg|faag bgaf|g2bg dgbg|agfa gfga|
bgag f<deg|fdcA BGBd|g2gf (3gab ag|fdcA BGAF||

%%%

